lab1/Effects/LUTs/tony_mc_mapface.cube
LUT_3D_SIZE 8
DOMAIN_MIN 0.000000 0.000000 0.000000
DOMAIN_MAX 0.893617 0.893617 0.893617
0.00013700 0.00013700 0.00013700
0.14973308 0.00098418 0.00057642
0.31520149 0.00433428 0.00235847
0.49957564 0.01218953 0.00666271
0.69892627 0.02876943 0.01612588
0.87478155 0.06432895 0.03767430
0.96857572 0.14860551 0.09385054
1.00000000 0.38605991 0.28150132
0.00212658 0.14062607 0.00111534
0.14246991 0.14111540 0.00278619
0.30168861 0.13534054 0.00572186
0.48113683 0.13105237 0.01065106
0.67987108 0.13214701 0.02103923
0.86134470 0.14950441 0.04298169
0.96377873 0.21061534 0.09805895
1.00000000 0.41419345 0.28125644
0.00920729 0.27747416 0.00473358
0.12936741 0.27947798 0.00767495
0.28482166 0.27914184 0.01241851
0.45581555 0.26735550 0.01963801
0.64734340 0.25566652 0.03060822
0.83684790 0.25377831 0.05244619
0.95558470 0.28659344 0.10687020
1.00000000 0.44939402 0.28426477
0.02393619 0.41164905 0.01261871
0.12387946 0.41452888 0.01680897
0.25560430 0.41717434 0.02304448
0.42796218 0.41466910 0.03292556
0.61091691 0.39631280 0.04740205
0.80114096 0.37881565 0.06996297
0.94154149 0.38346764 0.12146381
1.00000000 0.49531263 0.29227245
0.05117777 0.54333651 0.02814332
0.13106665 0.54641706 0.03356308
0.23610267 0.54916817 0.04127404
0.38024789 0.55296803 0.05284531
0.57105893 0.54721409 0.07155234
0.75859416 0.52226847 0.09934093
0.91707242 0.50367290 0.14860557
0.99862903 0.55919456 0.30531967
0.10135882 0.67065537 0.05930812
0.16115160 0.67328233 0.06582807
0.24005471 0.67623782 0.07475691
0.34701225 0.67884415 0.08781306
0.50182575 0.68343496 0.10815303
0.70884424 0.67429912 0.14276780
0.88054186 0.64538610 0.19783928
0.98857516 0.64912653 0.33101583
0.20097563 0.78839260 0.12933584
0.23991907 0.79004544 0.13642234
0.29155290 0.79204929 0.14584592
0.36195004 0.79431802 0.15916194
0.46231210 0.79664552 0.17939621
0.61761296 0.80147827 0.21334253
0.83003730 0.79152930 0.27764842
0.96803272 0.76771146 0.39926967
0.43583056 0.89269835 0.32929206
0.45207077 0.89329338 0.33455139
0.47355068 0.89405614 0.34149212
0.50331879 0.89505553 0.35106698
0.54636312 0.89638770 0.36522660
0.61331999 0.89808416 0.38823369
0.72992134 0.90226662 0.43318093
0.92789286 0.89896286 0.54711288
0.00002802 0.00129597 0.14824092
0.14287105 0.00286688 0.14225493
0.29978240 0.00713974 0.13241549
0.47663620 0.01574171 0.12476389
0.67204630 0.03276176 0.12104079
0.85683757 0.06811395 0.12786049
0.96683151 0.15103154 0.16668600
1.00000000 0.38697407 0.32328880
0.00448576 0.14122432 0.14245814
0.14285424 0.14285427 0.14285405
0.29858527 0.13539091 0.13482013
0.47416437 0.13081168 0.12832299
0.66841471 0.13279496 0.12558439
0.85292375 0.15065725 0.13275433
0.96403825 0.21166876 0.16974002
1.00000000 0.41461286 0.32362416
0.01216819 0.27912745 0.12536421
0.13142361 0.28162718 0.12884113
0.28492728 0.28124368 0.13236502
0.45128426 0.26870677 0.12985708
0.64058292 0.25649482 0.12859161
0.83149767 0.25402066 0.13698722
0.95612878 0.28774893 0.17401041
1.00000000 0.45001280 0.32450500
0.02804549 0.41259074 0.11381317
0.12744109 0.41702741 0.11880136
0.25692850 0.41841128 0.12472196
0.42757550 0.41672510 0.13294378
0.60641474 0.39805764 0.13818544
0.79639071 0.37989023 0.14760354
0.94130719 0.38423276 0.18287234
1.00000000 0.49589264 0.32901061
0.05689081 0.54417539 0.11043764
0.13606583 0.54897189 0.11650324
0.24010900 0.55133581 0.12403010
0.38133401 0.55375719 0.13513258
0.57035673 0.54906267 0.15143454
0.75519627 0.52401024 0.16962540
0.91617221 0.50478828 0.20384291
1.00000000 0.55917257 0.33926669
0.10822791 0.67264581 0.12304546
0.16738835 0.67560112 0.12967403
0.24526803 0.67812359 0.13841344
0.35120127 0.68047047 0.15091005
0.50308490 0.68415970 0.17041220
0.70840198 0.67594922 0.20173959
0.87943888 0.64685577 0.24588503
0.99012017 0.64905643 0.36089081
0.20838046 0.79045981 0.17342351
0.24677913 0.79190260 0.18032293
0.29748452 0.79373091 0.18950976
0.36714223 0.79591757 0.20235218
0.46637997 0.79795009 0.22165352
0.61918902 0.80236953 0.25420308
0.83037204 0.79297155 0.31425080
0.96853203 0.76855600 0.42207059
0.44085035 0.89383525 0.35011461
0.45693076 0.89440888 0.35521063
0.47801718 0.89514953 0.36196181
0.50734323 0.89612710 0.37125531
0.54997450 0.89744389 0.38496694
0.61635590 0.89915043 0.40723285
0.73171461 0.90304303 0.45064011
0.92844248 0.89978325 0.56029063
0.00000000 0.00582757 0.30891326
0.13163720 0.00781467 0.29436216
0.28622791 0.01284872 0.28353947
0.45426181 0.02242841 0.26152781
0.64200777 0.04028205 0.24185708
0.83155149 0.07585046 0.23086791
0.95681995 0.15751092 0.24619716
1.00000000 0.38874730 0.37394261
0.00697973 0.13787711 0.30606332
0.13365752 0.13512060 0.29471511
0.28546691 0.13377760 0.28484413
0.45157686 0.13095148 0.26439419
0.63986742 0.13473573 0.24668439
0.82934827 0.15369426 0.23657987
0.95812744 0.21433413 0.25354406
1.00000000 0.41554651 0.37534097
0.02004408 0.27965051 0.28489476
0.13618657 0.28157011 0.28510216
0.28555694 0.28555840 0.28555739
0.44796729 0.26851118 0.26751083
0.63279188 0.25541347 0.25138921
0.82269949 0.25408107 0.24236175
0.95517999 0.28876102 0.25781503
1.00000000 0.45088881 0.37429714
0.03341341 0.41690734 0.24611323
0.13153811 0.41812244 0.24864885
0.25955477 0.42177427 0.25477529
0.42749336 0.42060494 0.26039928
0.60057741 0.40051565 0.25181898
0.79126686 0.38059318 0.24495587
0.94103408 0.38445923 0.26090083
1.00000000 0.49746555 0.37425929
0.06380039 0.54671210 0.21691045
0.14183217 0.54923153 0.22221494
0.24496421 0.55436730 0.23037393
0.38288847 0.55559105 0.23991585
0.56970048 0.55228442 0.25315961
0.75052178 0.52660662 0.25812870
0.91472805 0.50650829 0.27313447
1.00000000 0.56010062 0.38053888
0.11675969 0.67258078 0.20459969
0.17535011 0.67676061 0.21147944
0.25214350 0.68086016 0.22042023
0.35650951 0.68301249 0.23199797
0.50453621 0.68543339 0.24980934
0.70789659 0.67855436 0.27697200
0.87787098 0.64890260 0.30681047
0.99196100 0.64917016 0.39881966
0.21759745 0.79241955 0.23035078
0.25582874 0.79454184 0.23713902
0.30547431 0.79604101 0.24587050
0.37375954 0.79802155 0.25804588
0.47177604 0.80010271 0.27617344
0.62110680 0.80364287 0.30659282
0.83077806 0.79502225 0.36123082
0.96911263 0.76970714 0.45133534
0.44735506 0.89534760 0.37720630
0.46323091 0.89588892 0.38208395
0.48404762 0.89659339 0.38854650
0.51255190 0.89753848 0.39750087
0.55463433 0.89882660 0.41062200
0.62025601 0.90054625 0.43192488
0.73402905 0.90407598 0.47330397
0.92914212 0.90087873 0.57742625
0.00000000 0.01635000 0.48487416
0.11882520 0.01826998 0.45046765
0.26254374 0.02373088 0.44526884
0.43073738 0.03417291 0.42415673
0.61174172 0.05261057 0.38742492
0.79970318 0.08825003 0.35428944
0.94304848 0.16772315 0.34349748
1.00000000 0.39237627 0.42825836
0.01132184 0.13846704 0.49692538
0.12661253 0.13287121 0.46200940
0.26251930 0.13204603 0.44300506
0.42942396 0.13587949 0.42636359
0.60797161 0.14139521 0.39060906
0.79761809 0.16163097 0.35937592
0.94324046 0.22183388 0.34896165
1.00000000 0.41849899 0.43366295
0.02674667 0.27244714 0.46167290
0.13395721 0.27351582 0.45869884
0.26472262 0.26736277 0.44172361
0.42764488 0.26330116 0.42681080
0.60273492 0.25344872 0.39375913
0.79329216 0.25521746 0.36538994
0.94312847 0.29129210 0.35646370
1.00000000 0.45212337 0.43845209
0.05239626 0.41595405 0.42843515
0.14654531 0.41780144 0.42818347
0.26744741 0.42127311 0.42796573
0.42806527 0.42806596 0.42806515
0.59719294 0.39994454 0.39826068
0.78446120 0.37862524 0.37181017
0.93913198 0.38419619 0.36299306
1.00000000 0.49814850 0.43691772
0.07279064 0.55253530 0.36304119
0.15033719 0.55365932 0.36437353
0.24997674 0.55533999 0.36881888
0.38613445 0.56032032 0.37812364
0.56925243 0.55811989 0.38697472
0.74437207 0.53021169 0.37237421
0.91427875 0.50646049 0.36519426
1.00000000 0.56078464 0.43769130
0.12767883 0.67604738 0.31463403
0.18454066 0.67777830 0.32005918
0.26038489 0.68118078 0.32774571
0.36317992 0.68671054 0.33957580
0.50685316 0.68797851 0.35436204
0.70735097 0.68289936 0.37621006
0.87547356 0.65189213 0.38639191
0.99390906 0.65008396 0.44767964
0.22934493 0.79203063 0.30539337
0.26704785 0.79498762 0.31207165
0.31639734 0.79922640 0.32126060
0.38282776 0.80106372 0.33244866
0.47867098 0.80306852 0.34888834
0.62358022 0.80559665 0.37609470
0.83127630 0.79811215 0.42369047
0.96977895 0.77134758 0.49023375
0.45612657 0.89747316 0.41388676
0.47171131 0.89796019 0.41845474
0.49215382 0.89860368 0.42451096
0.52010500 0.89948332 0.43291649
0.56088835 0.90072054 0.44529277
0.62543178 0.90243691 0.46527964
0.73712236 0.90552020 0.50388479
0.93006229 0.90241212 0.60060459
0.00035335 0.03826315 0.67265385
0.10775935 0.03909475 0.61850554
0.23343338 0.04453811 0.60473639
0.39055300 0.05505799 0.59488815
0.57541031 0.07428526 0.56300765
0.76364022 0.10904919 0.50844175
0.92169535 0.18503642 0.46483535
1.00000000 0.39855409 0.49739918
0.01813585 0.14742169 0.69706285
0.12223873 0.14063580 0.64488757
0.23866943 0.13820761 0.60604495
0.39130685 0.14487752 0.59554499
0.57373577 0.15619403 0.56587124
0.76019412 0.17716427 0.51179516
0.92144859 0.23552202 0.46950069
1.00000000 0.42371076 0.50163943
0.03502108 0.26979849 0.66845703
0.13450181 0.26822162 0.65463346
0.24799784 0.25788990 0.61456889
0.39027023 0.25461572 0.58960533
0.57094401 0.25881457 0.56691712
0.75510180 0.26323593 0.51509619
0.92057091 0.30014837 0.47534919
1.00000000 0.45621988 0.50742781
0.06583728 0.40542021 0.61893582
0.15099694 0.40620863 0.61558431
0.25900471 0.40798801 0.61137092
0.39356840 0.39826411 0.58837670
0.56855869 0.39154366 0.56736159
0.74905479 0.37569565 0.51958424
0.91827399 0.38545272 0.48298103
1.00000000 0.49945912 0.51621270
0.11111163 0.54970908 0.57256734
0.18320547 0.55136645 0.57193398
0.27582633 0.55419970 0.57114279
0.39897281 0.55933046 0.57022309
0.56936544 0.56936777 0.56936604
0.74194872 0.52905071 0.52622992
0.91210890 0.50399345 0.49143875
1.00000000 0.56159645 0.51679051
0.14345357 0.68285674 0.47346449
0.19960088 0.68388289 0.47476473
0.27340019 0.68527681 0.47726575
0.37014309 0.68768215 0.48464388
0.51112425 0.69414306 0.49823120
0.70681846 0.69071573 0.51249325
0.87190974 0.65627444 0.49392658
0.99693698 0.65005279 0.51786608
0.24504742 0.79422486 0.41169956
0.28085148 0.79585409 0.41703618
0.32840011 0.79840106 0.42427546
0.39488849 0.80290890 0.43486366
0.48797396 0.80748975 0.45023447
0.62801224 0.80904084 0.47245359
0.83187950 0.80314553 0.51055074
0.97090429 0.77335817 0.54493380
0.46880084 0.90072489 0.46627343
0.48380947 0.90111291 0.47039354
0.50361162 0.90163863 0.47584414
0.53083986 0.90238219 0.48340166
0.57019633 0.90348893 0.49461332
0.63263994 0.90514678 0.51273483
0.74146271 0.90769440 0.54734045
0.93131065 0.90470719 0.63365144
0.00643263 0.08500341 0.84905553
0.10269486 0.08263393 0.79701477
0.20769787 0.08540030 0.76059216
0.34231740 0.09555501 0.75154847
0.51415247 0.11364099 0.73818785
0.71483386 0.14760771 0.69594675
0.89005274 0.21678390 0.62213504
0.99876904 0.41199148 0.59336865
0.03289470 0.17808811 0.86857116
0.12379557 0.17001873 0.82420111
0.22141531 0.16526173 0.77560169
0.34788173 0.16940422 0.75238425
0.51541924 0.18351531 0.74018407
0.71323383 0.20858425 0.69887477
0.88856494 0.26238447 0.62512285
0.99952883 0.43527719 0.59651870
0.05656458 0.28654149 0.86490393
0.14082614 0.27900591 0.83762258
0.23884796 0.26714545 0.79362166
0.35327122 0.26052526 0.75143009
0.51496601 0.26930368 0.73762411
0.71064329 0.28517607 0.70084113
0.88634038 0.32039651 0.62855810
1.00000000 0.46538189 0.60063386
0.08295378 0.40186581 0.82366771
0.15879735 0.40278071 0.81873560
0.25567976 0.39881292 0.80337387
0.36655173 0.38373333 0.76187378
0.51418382 0.37746635 0.73055089
0.70747256 0.38457859 0.70203263
0.88320631 0.39677855 0.63296431
1.00000000 0.50579345 0.60632360
0.13489100 0.53619033 0.76801091
0.19761257 0.53674495 0.76540506
0.27780253 0.53845894 0.76266712
0.38303405 0.54091364 0.75800008
0.51931322 0.52785891 0.73079771
0.70487320 0.51880312 0.70310849
0.87923497 0.50199193 0.63972062
1.00000000 0.56297702 0.61512983
0.21228956 0.67867965 0.71192449
0.26203296 0.68018413 0.71132529
0.32616544 0.68248057 0.71054512
0.41185355 0.68622726 0.70951271
0.53152645 0.69289815 0.70813370
0.70613843 0.70614201 0.70613891
0.87246627 0.65435314 0.64928514
1.00000000 0.64959890 0.62213778
0.27159113 0.80121857 0.57388198
0.30719936 0.80217445 0.57533950
0.35278440 0.80346471 0.57852238
0.41239727 0.80543888 0.58502960
0.49822456 0.80890054 0.59531242
0.63440979 0.81654835 0.61397284
0.83243674 0.81226480 0.63802290
0.97254235 0.77680832 0.62617308
0.48443383 0.90046167 0.54370862
0.49984869 0.90175366 0.54753512
0.51980770 0.90348935 0.55272365
0.54666245 0.90592694 0.56010139
0.58476555 0.90807414 0.57018346
0.64374161 0.90940130 0.58524120
0.74801010 0.91144031 0.61374491
0.93305373 0.90849233 0.68435496
0.03740817 0.19535129 0.95637047
0.11770837 0.18631823 0.93757647
0.20303018 0.18081214 0.90950996
0.30431274 0.18240592 0.88166159
0.44303882 0.19661090 0.87145233
0.62896013 0.22566923 0.86201257
0.83723640 0.28393969 0.81525499
0.98052287 0.44433388 0.72904539
0.06969176 0.26774207 0.96275908
0.14654785 0.25496832 0.94756699
0.22495033 0.24617125 0.92421615
0.31827420 0.24080878 0.89134341
0.44989449 0.24868432 0.87351727
0.63013881 0.27336061 0.86351442
0.83640522 0.32217604 0.81750804
0.98076534 0.46458507 0.73112386
0.10622226 0.34918144 0.96446848
0.17238615 0.33840013 0.95406437
0.25018236 0.32472485 0.93380839
0.33679923 0.31411207 0.90316933
0.45656225 0.31289744 0.87473005
0.63058633 0.33215031 0.86339456
0.83515012 0.37058035 0.81976122
0.98102891 0.49077979 0.73382264
0.13696148 0.44399849 0.95947891
0.19845223 0.43779120 0.95417917
0.27495193 0.42488277 0.94073951
0.35889983 0.40993980 0.91514438
0.46449783 0.39703649 0.87793946
0.63063979 0.40679383 0.86100459
0.83341044 0.43397018 0.82199502
0.98129606 0.52597129 0.73749429
0.17220999 0.54164344 0.93378848
0.22490391 0.54284304 0.93361908
0.29947931 0.54276073 0.93299085
0.38197932 0.53670168 0.92198855
0.48501229 0.51706260 0.89049441
0.63185406 0.50557148 0.85591602
0.83127284 0.52068388 0.82425463
0.98149991 0.57567883 0.74283499
0.25206527 0.66379404 0.89020526
0.29222399 0.66464448 0.88986725
0.34399262 0.66614604 0.88947922
0.41281340 0.66863728 0.88871056
0.50805539 0.67152315 0.88584012
0.64064312 0.65574729 0.86026186
0.82945973 0.64565426 0.82686400
0.98131615 0.65066630 0.75134563
0.38240561 0.79898489 0.83511239
0.41016027 0.80022687 0.83513504
0.44617134 0.80195642 0.83513194
0.49470201 0.80450964 0.83506924
0.56337976 0.80859089 0.83484960
0.66675526 0.81589144 0.83413690
0.83110183 0.83110589 0.83110255
0.97728294 0.77391309 0.76332080
0.51503009 0.90353400 0.67628247
0.52828538 0.90425676 0.67858464
0.54523098 0.90522796 0.68185008
0.56846344 0.90661985 0.68644774
0.60307807 0.90882725 0.69319797
0.65951675 0.91298568 0.70462662
0.75848460 0.91881597 0.72607899
0.93533015 0.91577071 0.77062267
0.20423430 0.49185410 1.00000000
0.25083271 0.47723520 1.00000000
0.30197856 0.46167341 0.99961388
0.36448577 0.44352517 0.99319106
0.43799183 0.42930880 0.98108298
0.54544151 0.42627335 0.96104920
0.72196686 0.45840794 0.95392871
0.93457770 0.55080122 0.91723078
0.22480735 0.52778798 1.00000000
0.27555662 0.51094270 1.00000000
0.32519475 0.49494344 1.00000000
0.38009575 0.47891870 0.99645114
0.45126137 0.46201196 0.98535800
0.55315036 0.45302290 0.96365863
0.72364116 0.47998956 0.95455670
0.93453300 0.56486094 0.91823381
0.25911105 0.56393367 1.00000000
0.29723006 0.55325222 1.00000000
0.34813765 0.53640169 1.00000000
0.40277401 0.51874459 0.99913430
0.46955195 0.50021565 0.98855263
0.56165242 0.48704323 0.96713412
0.72566301 0.50702459 0.95511192
0.93445510 0.58297211 0.91946596
0.29749677 0.60652381 1.00000000
0.33167455 0.59836888 1.00000000
0.37203020 0.58761507 1.00000000
0.42548072 0.57052606 1.00000000
0.48838297 0.55104077 0.99281758
0.57370698 0.53184444 0.97211343
0.72830886 0.54203117 0.95551330
0.93432271 0.60718590 0.92101568
0.32533804 0.66037637 1.00000000
0.36293095 0.65493965 1.00000000
0.40846440 0.64535809 1.00000000
0.45326480 0.63490617 1.00000000
0.51268983 0.61735314 0.99724543
0.59387487 0.59432304 0.98007864
0.73230684 0.58951181 0.95567161
0.93410182 0.64121807 0.92302358
0.37398157 0.71528095 1.00000000
0.40148872 0.71566951 1.00000000
0.43630424 0.71570492 1.00000000
0.48064232 0.71381527 1.00000000
0.54303581 0.70411074 0.99970257
0.61814451 0.68423694 0.98682320
0.73756582 0.65965474 0.95620197
0.93374568 0.69248319 0.92571670
0.45126641 0.79264301 0.97837430
0.46956864 0.79354650 0.97909439
0.49339578 0.79475266 0.97998202
0.52563167 0.79640466 0.98106235
0.57147032 0.79866737 0.98224491
0.64980549 0.80081129 0.98365963
0.75566679 0.78469473 0.96654403
0.93327814 0.77766329 0.92943937
0.66563171 0.90916115 0.93661934
0.67371982 0.90973586 0.93679249
0.68431658 0.91050112 0.93700701
0.69879729 0.91156864 0.93727809
0.71973592 0.91315997 0.93761641
0.75258833 0.91577703 0.93800431
0.81085974 0.92083126 0.93813270
0.93411309 0.93411672 0.93411398
