lab1/Effects/LUTs/tony_mc_mapface.cube
LUT_3D_SIZE 48
0.00013700 0.00013700 0.00013700
0.02410411 0.00015604 0.00014632
0.04843912 0.00021824 0.00017804
0.07315538 0.00032756 0.00023435
0.09826677 0.00048837 0.00031764
0.12378774 0.00070545 0.00043066
0.14973308 0.00098418 0.00057642
0.17611814 0.00133043 0.00075824
0.20295884 0.00175084 0.00097994
0.23027140 0.00225271 0.00124575
0.25807205 0.00284428 0.00156040
0.28637698 0.00353473 0.00192925
0.31520149 0.00433428 0.00235847
0.34455979 0.00525461 0.00285488
0.37446314 0.00630879 0.00342629
0.40491983 0.00751147 0.00408176
0.43593147 0.00887921 0.00483158
0.46748978 0.01043141 0.00568735
0.49957564 0.01218953 0.00666271
0.53215158 0.01417878 0.00777359
0.56515467 0.01642746 0.00903813
0.59849310 0.01896870 0.01047811
0.63203192 0.02184173 0.01211835
0.66558892 0.02509087 0.01398908
0.69892627 0.02876943 0.01612588
0.73174423 0.03293926 0.01857169
0.76368701 0.03767506 0.02137712
0.79435891 0.04306502 0.02460516
0.82334679 0.04921472 0.02833160
0.85026181 0.05625113 0.03264990
0.87478155 0.06432895 0.03767430
0.89669180 0.07363367 0.04354788
0.91590935 0.08439285 0.05044868
0.93248940 0.09688285 0.05860133
0.94660699 0.11144789 0.06829043
0.95852834 0.12851176 0.07988214
0.96857572 0.14860551 0.09385054
0.97709686 0.17239678 0.11081724
0.98444366 0.20073000 0.13160473
0.99096251 0.23468103 0.15731607
0.99699312 0.27562180 0.18944457
1.00000000 0.32534704 0.22988787
1.00000000 0.38605991 0.28150132
1.00000000 0.46053135 0.34837762
1.00000000 0.55216801 0.43647262
1.00000000 0.66496992 0.55536300
1.00000000 0.80431712 0.72361803
1.00000000 0.97986972 0.97230178
0.00018553 0.02385611 0.00015926
0.02390748 0.02387107 0.00020142
0.04807749 0.02371539 0.00026336
0.07264651 0.02356604 0.00034071
0.09763363 0.02345623 0.00044070
0.12307416 0.02338213 0.00057537
0.14892933 0.02336817 0.00073862
0.17527510 0.02340057 0.00094773
0.20205900 0.02351832 0.00118689
0.22931141 0.02371119 0.00146996
0.25711656 0.02396292 0.00181997
0.28535941 0.02433002 0.00220786
0.31411332 0.02480197 0.00265466
0.34339213 0.02539084 0.00316693
0.37320682 0.02610909 0.00375242
0.40356535 0.02697182 0.00441981
0.43446907 0.02799593 0.00517864
0.46614751 0.02910487 0.00612052
0.49813518 0.03049742 0.00711131
0.53060734 0.03211557 0.00823536
0.56350261 0.03398743 0.00951014
0.59673125 0.03614630 0.01095685
0.63016212 0.03862967 0.01260011
0.66361898 0.04148342 0.01446913
0.69686818 0.04475934 0.01659852
0.72961831 0.04851983 0.01902996
0.76152152 0.05283835 0.02181311
0.79218805 0.05780263 0.02500922
0.82121068 0.06351738 0.02869165
0.84820271 0.07010906 0.03295171
0.87283874 0.07772974 0.03790029
0.89493614 0.08652220 0.04372950
0.91435605 0.09674695 0.05057310
0.93113971 0.10867791 0.05865155
0.94545251 0.12265296 0.06824750
0.95755136 0.13909245 0.07972038
0.96777576 0.15847126 0.09363396
0.97645044 0.18148273 0.11056439
0.98391807 0.20899470 0.13128306
0.99052870 0.24207793 0.15688549
0.99662513 0.28210115 0.18885408
1.00000000 0.33081493 0.22922581
1.00000000 0.39045325 0.28083855
1.00000000 0.46382493 0.34773120
1.00000000 0.55437040 0.43588227
1.00000000 0.66615367 0.55489874
1.00000000 0.80469531 0.72338784
1.00000000 0.97987354 0.97229671
0.00033917 0.04744531 0.00023311
0.02353826 0.04751136 0.00030783
0.04765060 0.04750443 0.00040440
0.07202268 0.04720199 0.00052827
0.09681347 0.04687993 0.00066619
0.12201028 0.04656765 0.00082299
0.14769416 0.04629599 0.00100802
0.17381655 0.04607794 0.00122179
0.20049714 0.04588545 0.00149109
0.22761916 0.04577250 0.00179565
0.25523153 0.04573619 0.00214708
0.28348246 0.04573715 0.00258442
0.31213519 0.04587698 0.00305211
0.34134904 0.04612983 0.00358513
0.37112308 0.04650802 0.00419067
0.40144622 0.04701805 0.00488057
0.43243498 0.04763145 0.00570028
0.46394894 0.04841827 0.00662277
0.49589300 0.04943144 0.00763530
0.52831870 0.05066162 0.00877979
0.56116676 0.05213724 0.01007364
0.59434903 0.05389136 0.01153751
0.62773955 0.05596187 0.01319597
0.66116524 0.05839356 0.01507748
0.69439721 0.06123827 0.01721581
0.72746480 0.06439207 0.01981769
0.75960934 0.06812771 0.02274309
0.79034472 0.07260018 0.02597670
0.81946200 0.07780929 0.02969624
0.84657419 0.08387934 0.03399214
0.87135309 0.09096093 0.03897542
0.89357108 0.09923554 0.04478411
0.91312706 0.10892514 0.05159061
0.93005520 0.12029997 0.05961239
0.94451118 0.13369569 0.06912493
0.95674497 0.14952722 0.08048265
0.96706748 0.16831599 0.09414516
0.97582465 0.19070373 0.11074208
0.98339093 0.21744986 0.13124636
0.99007970 0.24970010 0.15660378
0.99623454 0.28881758 0.18829790
1.00000000 0.33651057 0.22851209
1.00000000 0.39502880 0.28012848
1.00000000 0.46725470 0.34704399
1.00000000 0.55666322 0.43525660
1.00000000 0.66738760 0.55441010
1.00000000 0.80508870 0.72314572
1.00000000 0.97987670 0.97229058
0.00060383 0.07091095 0.00036184
0.02326399 0.07102033 0.00046944
0.04689861 0.07110316 0.00059696
0.07137246 0.07104162 0.00075452
0.09596051 0.07059602 0.00094499
0.12098592 0.07012021 0.00114994
0.14644016 0.06962830 0.00137518
0.17232946 0.06915363 0.00162421
0.19876203 0.06871954 0.00190909
0.22566575 0.06835067 0.00222733
0.25306705 0.06804647 0.00258762
0.28115499 0.06775350 0.00303512
0.30968809 0.06757488 0.00352409
0.33875716 0.06749402 0.00407747
0.36837110 0.06752536 0.00470247
0.39873806 0.06760488 0.00546389
0.42955315 0.06786657 0.00629003
0.46085471 0.06831817 0.00719923
0.49275240 0.06896380 0.00822459
0.52514493 0.06981805 0.00938027
0.55799282 0.07089422 0.01069436
0.59146869 0.07211128 0.01228533
0.62497580 0.07370764 0.01400992
0.65844721 0.07568792 0.01592775
0.69174021 0.07806841 0.01810280
0.72457355 0.08091079 0.02057594
0.75661057 0.08428676 0.02339631
0.78746909 0.08828351 0.02662308
0.81674558 0.09300291 0.03032879
0.84405142 0.09857032 0.03460103
0.86931843 0.10490507 0.03982047
0.89202207 0.11236374 0.04594424
0.91179115 0.12145166 0.05277997
0.92892665 0.13219833 0.06082667
0.94357640 0.14493529 0.07035847
0.95598537 0.16007364 0.08172838
0.96646100 0.17812923 0.09539373
0.97534299 0.19975464 0.11195386
0.98298049 0.22577733 0.13220617
0.98972034 0.25725478 0.15722060
0.99590921 0.29553005 0.18849653
1.00000000 0.34222832 0.22846745
1.00000000 0.39972526 0.27965286
1.00000000 0.47082746 0.34631035
1.00000000 0.55905211 0.43459389
1.00000000 0.66867548 0.55389714
1.00000000 0.80549979 0.72289300
1.00000000 0.97987992 0.97228438
0.00098533 0.09425905 0.00054908
0.02310989 0.09441187 0.00068912
0.04617986 0.09451568 0.00085240
0.07025384 0.09461655 0.00103665
0.09507924 0.09448653 0.00126115
0.11989462 0.09390090 0.00152253
0.14514923 0.09326607 0.00180056
0.17087930 0.09261923 0.00209944
0.19705778 0.09195720 0.00242532
0.22370005 0.09132177 0.00278071
0.25088421 0.09074825 0.00317247
0.27869359 0.09021322 0.00362377
0.30697390 0.08977275 0.00411669
0.33581293 0.08941276 0.00467195
0.36548716 0.08904447 0.00536222
0.39555895 0.08885121 0.00609664
0.42619196 0.08878799 0.00692133
0.45737720 0.08887494 0.00784675
0.48909706 0.08913366 0.00888560
0.52177006 0.08939996 0.01019638
0.55447537 0.09005855 0.01152924
0.58757859 0.09097877 0.01303030
0.62100047 0.09220597 0.01472455
0.65452206 0.09376337 0.01664602
0.68791217 0.09569540 0.01883234
0.72137862 0.09781464 0.02155870
0.75357938 0.10069031 0.02441533
0.78462851 0.10417045 0.02767785
0.81412435 0.10835541 0.03141849
0.84167415 0.11336897 0.03572540
0.86693746 0.11935776 0.04070750
0.88966799 0.12649897 0.04649890
0.90974271 0.13500892 0.05326849
0.92728722 0.14499898 0.06144006
0.94241989 0.15673997 0.07141105
0.95513308 0.17100218 0.08302931
0.96578509 0.18830092 0.09669621
0.97481519 0.20912321 0.11324563
0.98257428 0.23429227 0.13347100
0.98941141 0.26486108 0.15843828
0.99567068 0.30218583 0.18959869
1.00000000 0.34801015 0.22895609
1.00000000 0.40449557 0.27962279
1.00000000 0.47445786 0.34599325
1.00000000 0.56154180 0.43389004
1.00000000 0.67002171 0.55335832
1.00000000 0.80592990 0.72262728
1.00000000 0.97988409 0.97227830
0.00149022 0.11749561 0.00079878
0.02308045 0.11768661 0.00097155
0.04559379 0.11782358 0.00116948
0.06911062 0.11797138 0.00138869
0.09360035 0.11804852 0.00163744
0.11877660 0.11784329 0.00193467
0.14382930 0.11711808 0.00227179
0.16931769 0.11632296 0.00262890
0.19533765 0.11552142 0.00300808
0.22180521 0.11469496 0.00341516
0.24877119 0.11386272 0.00385772
0.27622867 0.11306836 0.00433696
0.30427092 0.11234941 0.00486195
0.33301690 0.11166693 0.00546427
0.36223349 0.11110306 0.00611515
0.39201814 0.11063971 0.00683932
0.42248240 0.11025129 0.00767345
0.45383263 0.10986950 0.00869059
0.48547861 0.10974357 0.00975998
0.51764029 0.10979888 0.01095785
0.55026400 0.11006341 0.01230105
0.58331686 0.11054941 0.01382510
0.61716056 0.11107650 0.01572974
0.65057689 0.11215850 0.01767256
0.68391818 0.11361962 0.01986818
0.71695501 0.11552959 0.02235866
0.74934709 0.11793871 0.02520483
0.78065735 0.12092024 0.02846491
0.81100017 0.12424011 0.03255866
0.83888137 0.12867600 0.03691230
0.86447161 0.13407773 0.04192625
0.88753361 0.14060691 0.04774762
0.90793210 0.14847900 0.05454391
0.92566717 0.15795404 0.06252630
0.94086617 0.16935523 0.07196190
0.95377088 0.18306604 0.08322594
0.96485323 0.19922082 0.09740939
0.97420633 0.21889208 0.11448932
0.98212576 0.24312344 0.13479045
0.98907191 0.27275395 0.15970725
0.99541575 0.30907914 0.19079238
1.00000000 0.35384250 0.23004298
1.00000000 0.40928861 0.28026912
1.00000000 0.47820604 0.34583205
1.00000000 0.56408608 0.43349311
1.00000000 0.67143059 0.55279034
1.00000000 0.80637962 0.72234756
1.00000000 0.97988814 0.97227144
0.00212658 0.14062607 0.00111534
0.02318425 0.14085181 0.00132100
0.04515779 0.14104304 0.00155143
0.06807189 0.14118487 0.00180986
0.09203582 0.14137009 0.00209134
0.11693932 0.14140162 0.00241039
0.14246991 0.14111540 0.00278619
0.16777137 0.14024968 0.00320456
0.19352201 0.13929890 0.00364672
0.21980745 0.13833301 0.00411252
0.24660249 0.13734578 0.00460989
0.27389652 0.13633284 0.00514548
0.30168861 0.13534054 0.00572186
0.33002165 0.13439301 0.00634641
0.35899174 0.13354035 0.00702898
0.38873649 0.13271952 0.00781320
0.41893324 0.13204862 0.00865468
0.44970453 0.13149936 0.00958761
0.48113683 0.13105237 0.01065106
0.51356155 0.13057962 0.01196446
0.54613364 0.13043520 0.01333847
0.57911068 0.13051498 0.01487777
0.61237949 0.13085744 0.01660514
0.64578646 0.13150550 0.01854813
0.67987108 0.13214701 0.02103923
0.71291023 0.13353465 0.02355826
0.74529481 0.13540901 0.02641513
0.77670699 0.13786758 0.02967091
0.80674368 0.14100745 0.03340137
0.83500868 0.14491218 0.03772370
0.86134470 0.14950441 0.04298169
0.88507169 0.15520200 0.04906280
0.90585637 0.16242036 0.05588475
0.92395109 0.17120932 0.06388853
0.93947399 0.18188876 0.07334041
0.95265019 0.19485709 0.08458274
0.96377873 0.21061534 0.09805895
0.97325373 0.22967233 0.11458565
0.98148388 0.25266367 0.13538530
0.98867887 0.28099808 0.16091084
0.99513602 0.31623757 0.19203840
1.00000000 0.35990393 0.23117796
1.00000000 0.41419345 0.28125644
1.00000000 0.48197779 0.34631303
1.00000000 0.56671572 0.43322641
1.00000000 0.67290401 0.55219120
1.00000000 0.80685157 0.72205454
1.00000000 0.97989267 0.97226477
0.00290196 0.16365607 0.00150367
0.02343034 0.16391359 0.00174226
0.04486096 0.16415019 0.00200546
0.06718999 0.16430810 0.00230136
0.09056216 0.16451682 0.00261956
0.11496003 0.16470420 0.00297105
0.14027485 0.16467935 0.00336752
0.16616468 0.16430630 0.00382825
0.19172473 0.16329895 0.00433363
0.21775484 0.16219124 0.00486736
0.24429291 0.16105202 0.00542679
0.27143231 0.15991142 0.00602187
0.29904705 0.15873510 0.00665617
0.32722026 0.15754196 0.00734125
0.35591123 0.15639015 0.00807672
0.38517359 0.15529805 0.00887331
0.41521680 0.15429923 0.00976112
0.44591764 0.15338638 0.01075075
0.47710156 0.15263401 0.01182419
0.50883311 0.15203181 0.01301391
0.54118925 0.15155539 0.01437046
0.57455236 0.15103598 0.01605527
0.60781360 0.15093867 0.01781356
0.64124769 0.15112731 0.01978731
0.67465621 0.15165214 0.02200924
0.70778114 0.15257306 0.02451758
0.74094963 0.15361302 0.02765850
0.77272689 0.15539852 0.03103962
0.80291748 0.15794332 0.03478697
0.83136207 0.16126613 0.03908724
0.85769826 0.16551054 0.04405263
0.88164556 0.17080332 0.04985929
0.90323263 0.17708981 0.05699235
0.92199481 0.18492925 0.06532054
0.93789542 0.19486871 0.07478737
0.95139807 0.20705451 0.08603662
0.96280140 0.22198179 0.09950993
0.97244775 0.24028151 0.11578764
0.98069829 0.26275769 0.13564281
0.98806918 0.29003102 0.16107689
0.99474961 0.32388917 0.19276902
1.00000000 0.36620641 0.23236299
1.00000000 0.41929784 0.28228715
1.00000000 0.48583755 0.34715062
1.00000000 0.56945151 0.43302882
1.00000000 0.67441761 0.55185688
1.00000000 0.80734605 0.72174478
1.00000000 0.97989696 0.97225732
0.00382514 0.18659066 0.00196904
0.02382729 0.18687782 0.00224083
0.04471431 0.18715332 0.00253697
0.06649335 0.18736604 0.00286603
0.08922446 0.18755057 0.00322694
0.11305091 0.18780555 0.00361274
0.13787973 0.18797414 0.00404079
0.16361147 0.18788511 0.00452177
0.18986593 0.18741909 0.00507415
0.21569419 0.18626854 0.00567331
0.24200983 0.18500508 0.00630529
0.26882216 0.18369314 0.00696685
0.29629776 0.18238962 0.00766710
0.32427934 0.18104456 0.00841217
0.35282001 0.17966729 0.00921243
0.38188681 0.17831527 0.01006959
0.41152295 0.17701435 0.01099442
0.44177043 0.17580107 0.01199836
0.47297221 0.17464596 0.01314912
0.50455081 0.17369518 0.01437785
0.53665513 0.17290041 0.01573717
0.56921881 0.17229441 0.01724686
0.60233283 0.17182970 0.01898615
0.63630962 0.17133202 0.02114434
0.66978425 0.17138040 0.02339580
0.70302689 0.17180195 0.02593385
0.73572874 0.17266634 0.02880407
0.76752466 0.17405719 0.03206201
0.79879951 0.17557669 0.03622789
0.82767135 0.17820787 0.04062457
0.85430288 0.18179667 0.04560010
0.87854630 0.18645060 0.05136104
0.90022171 0.19235617 0.05809988
0.91924423 0.19974138 0.06604642
0.93599957 0.20844617 0.07611457
0.94998246 0.21969108 0.08756192
0.96170151 0.23376592 0.10102985
0.97160530 0.25115705 0.11728902
0.98006082 0.27266243 0.13710813
0.98743683 0.29931530 0.16152215
0.99424112 0.33206886 0.19295412
1.00000000 0.37303558 0.23274761
1.00000000 0.42461172 0.28336543
1.00000000 0.48985997 0.34802699
1.00000000 0.57218033 0.43367532
1.00000000 0.67599827 0.55155504
1.00000000 0.80786538 0.72141886
1.00000000 0.97990161 0.97224963
0.00490543 0.20943524 0.00251766
0.02438436 0.20974962 0.00282273
0.04472976 0.21005931 0.00315202
0.06595454 0.21032354 0.00351430
0.08807144 0.21050666 0.00391489
0.11126425 0.21077006 0.00434073
0.13553439 0.21104500 0.00480283
0.16079621 0.21118154 0.00531480
0.18695325 0.21102239 0.00588756
0.21357794 0.21045670 0.00653894
0.23968691 0.20916018 0.00723910
0.26629609 0.20774066 0.00797694
0.29340497 0.20626372 0.00874911
0.32120284 0.20477918 0.00956344
0.34956440 0.20326942 0.01042905
0.37844372 0.20172806 0.01135028
0.40794048 0.20016433 0.01234543
0.43796167 0.19865692 0.01341135
0.46856084 0.19722354 0.01456394
0.49982518 0.19593176 0.01582205
0.53203213 0.19467966 0.01727512
0.56447154 0.19369692 0.01882375
0.59730321 0.19291770 0.02054153
0.63039631 0.19238403 0.02245559
0.66409391 0.19189668 0.02477106
0.69787216 0.19162233 0.02747665
0.73075277 0.19196509 0.03037481
0.76279497 0.19280642 0.03366042
0.79359645 0.19424362 0.03740117
0.82277924 0.19636504 0.04170523
0.85072988 0.19869576 0.04728428
0.87537891 0.20266317 0.05306204
0.89742005 0.20785192 0.05977675
0.91680175 0.21453299 0.06763951
0.93360853 0.22293989 0.07699951
0.94815415 0.23316963 0.08861621
0.96046203 0.24598207 0.10262589
0.97065926 0.26243854 0.11886322
0.97934860 0.28294650 0.13864271
0.98690587 0.30852926 0.16299452
0.99370462 0.34051946 0.19333003
1.00000000 0.38022283 0.23293327
1.00000000 0.43039817 0.28354946
1.00000000 0.49405590 0.34894502
1.00000000 0.57503355 0.43435556
1.00000000 0.67765766 0.55123383
1.00000000 0.80841047 0.72107422
1.00000000 0.97990608 0.97224146
0.00615522 0.23219438 0.00315621
0.02511204 0.23253404 0.00349454
0.04491589 0.23287429 0.00385730
0.06558697 0.23318177 0.00425299
0.08713508 0.23341273 0.00468755
0.10965011 0.23364058 0.00515948
0.13329755 0.23395748 0.00565907
0.15799236 0.23423775 0.00620657
0.18371232 0.23432846 0.00680782
0.21030474 0.23409420 0.00748060
0.23730533 0.23342174 0.00823886
0.26370436 0.23197702 0.00904808
0.29061952 0.23039877 0.00990018
0.31803375 0.22875641 0.01079228
0.34615096 0.22708063 0.01173037
0.37490436 0.22540820 0.01272723
0.40417686 0.22368863 0.01378668
0.43406647 0.22193271 0.01492743
0.46447501 0.22022262 0.01614817
0.49544498 0.21858093 0.01746608
0.52697217 0.21704809 0.01889746
0.55944031 0.21561798 0.02052892
0.59223521 0.21442188 0.02230551
0.62525672 0.21347819 0.02425719
0.65841109 0.21280268 0.02643261
0.69163227 0.21237560 0.02892398
0.72536677 0.21186599 0.03208080
0.75766796 0.21215647 0.03539446
0.78879362 0.21301642 0.03915931
0.81832761 0.21455674 0.04346064
0.84586090 0.21691468 0.04839796
0.87163234 0.21975125 0.05460816
0.89448303 0.22393896 0.06162502
0.91429967 0.22983250 0.06948764
0.93146729 0.23747270 0.07874424
0.94618702 0.24719019 0.08980910
0.95880914 0.25922862 0.10348091
0.96959990 0.27418321 0.12048727
0.97855443 0.29363117 0.14025514
0.98631465 0.31810695 0.16453931
0.99326873 0.34891477 0.19477847
0.99982291 0.38771906 0.23312977
1.00000000 0.43644848 0.28371647
1.00000000 0.49861908 0.34909171
1.00000000 0.57802075 0.43507236
1.00000000 0.67936343 0.55121177
1.00000000 0.80898499 0.72071016
1.00000000 0.97991174 0.97223294
0.00758478 0.25487250 0.00389194
0.02602177 0.25523561 0.00426397
0.04528962 0.25560245 0.00465970
0.06540410 0.25594768 0.00508934
0.08638408 0.25623414 0.00555817
0.10825734 0.25644422 0.00607104
0.13123117 0.25675592 0.00661387
0.15532131 0.25710687 0.00719713
0.18045902 0.25737646 0.00783611
0.20662716 0.25741801 0.00853662
0.23366794 0.25710189 0.00931811
0.26105240 0.25631616 0.01019219
0.28775078 0.25472048 0.01111925
0.31498152 0.25298107 0.01209525
0.34277311 0.25114971 0.01311881
0.37114170 0.24929518 0.01418959
0.40029624 0.24746126 0.01532963
0.42997026 0.24556457 0.01654029
0.46021703 0.24363402 0.01783612
0.49104619 0.24170917 0.01923203
0.52237493 0.23986156 0.02073271
0.55421084 0.23812054 0.02236055
0.58660054 0.23657097 0.02414319
0.61988443 0.23507728 0.02621949
0.65299577 0.23397981 0.02843476
0.68607515 0.23317942 0.03090568
0.71884727 0.23274422 0.03367730
0.75159770 0.23241055 0.03705755
0.78359175 0.23239838 0.04106521
0.81353647 0.23332736 0.04538710
0.84154308 0.23503789 0.05034330
0.86724555 0.23769331 0.05605893
0.89064604 0.24122623 0.06296416
0.91161156 0.24573629 0.07148099
0.92924452 0.25253847 0.08073225
0.94433242 0.26140383 0.09169001
0.95717353 0.27277279 0.10487434
0.96817362 0.28700745 0.12125731
0.97765952 0.30483970 0.14183807
0.98566818 0.32809347 0.16617467
0.99279219 0.35767215 0.19630881
0.99944776 0.39523372 0.23432039
1.00000000 0.44278589 0.28390387
1.00000000 0.50340784 0.34923357
1.00000000 0.58123440 0.43533227
1.00000000 0.68109816 0.55168313
1.00000000 0.80958617 0.72043091
1.00000000 0.97991681 0.97222382
0.00920729 0.27747416 0.00473358
0.02712796 0.27785867 0.00513921
0.04586083 0.27824947 0.00556793
0.06541829 0.27862692 0.00603147
0.08582915 0.27896023 0.00653484
0.10711385 0.27921018 0.00708224
0.12936741 0.27947798 0.00767495
0.15279691 0.27984747 0.00829751
0.17733222 0.28021654 0.00897222
0.20292011 0.28046522 0.00971054
0.22954655 0.28045169 0.01051937
0.25704697 0.28004900 0.01141914
0.28482166 0.27914184 0.01241851
0.31182781 0.27739266 0.01347311
0.33938390 0.27548927 0.01458332
0.36751372 0.27348325 0.01574828
0.39620197 0.27143919 0.01696612
0.42573953 0.26942763 0.01826162
0.45581555 0.26735550 0.01963801
0.48641545 0.26525235 0.02110484
0.51765484 0.26311341 0.02269370
0.54931837 0.26106384 0.02439684
0.58143073 0.25912204 0.02624330
0.61393768 0.25734773 0.02825963
0.64734340 0.25566652 0.03060822
0.68041772 0.25442952 0.03312070
0.71325934 0.25352448 0.03592782
0.74554318 0.25302964 0.03908293
0.77718073 0.25286630 0.04278000
0.80834305 0.25271764 0.04747298
0.83684790 0.25377831 0.05244619
0.86309791 0.25574324 0.05817412
0.88679940 0.25880593 0.06481195
0.90788734 0.26309222 0.07267614
0.92682737 0.26819783 0.08286855
0.94238526 0.27616069 0.09381288
0.95558470 0.28659344 0.10687020
0.96679521 0.30005693 0.12271821
0.97648138 0.31701973 0.14266971
0.98494494 0.33857206 0.16781402
0.99227327 0.36682460 0.19793402
0.99906886 0.40302461 0.23579656
1.00000000 0.44939402 0.28426477
1.00000000 0.50843662 0.34939432
1.00000000 0.58464181 0.43543461
1.00000000 0.68292946 0.55211067
1.00000000 0.81021774 0.72020590
1.00000000 0.97992319 0.97221440
0.01103766 0.30000305 0.00569002
0.02844212 0.30040693 0.00612962
0.04664393 0.30081895 0.00659144
0.06564493 0.30122471 0.00708929
0.08548488 0.30159745 0.00762669
0.10618581 0.30190530 0.00820977
0.12777908 0.30214086 0.00884273
0.15048157 0.30249488 0.00951369
0.17434421 0.30290926 0.01022828
0.19931950 0.30328619 0.01100363
0.22537348 0.30350545 0.01184972
0.25247118 0.30343190 0.01277655
0.28044927 0.30293819 0.01380470
0.30861512 0.30190021 0.01493988
0.33593902 0.29999381 0.01613289
0.36382693 0.29792365 0.01738906
0.39230037 0.29574063 0.01870761
0.42132795 0.29351494 0.02008664
0.45122513 0.29130882 0.02155125
0.48170364 0.28906012 0.02311001
0.51268262 0.28677058 0.02477052
0.54427052 0.28443635 0.02656730
0.57623291 0.28218779 0.02849475
0.60856682 0.28005010 0.03058545
0.64116174 0.27808073 0.03286747
0.67422801 0.27633405 0.03544280
0.70740080 0.27483791 0.03836913
0.73981726 0.27385241 0.04156015
0.77138704 0.27333313 0.04515573
0.80189830 0.27326304 0.04933119
0.83160090 0.27325472 0.05463433
0.85857695 0.27442148 0.06045856
0.88289070 0.27674237 0.06710268
0.90449041 0.28034702 0.07484467
0.92337096 0.28547278 0.08399151
0.94021577 0.29156449 0.09601688
0.95390642 0.30095595 0.10911874
0.96544772 0.31339678 0.12479358
0.97529930 0.32953674 0.14403133
0.98398232 0.34996828 0.16868716
0.99170780 0.37639809 0.19966508
0.99865627 0.41117996 0.23736583
1.00000000 0.45604593 0.28563026
1.00000000 0.51372206 0.34957507
1.00000000 0.58822489 0.43555042
1.00000000 0.68490487 0.55216998
1.00000000 0.81088477 0.71996725
1.00000000 0.97992909 0.97220409
0.01309224 0.32246250 0.00677208
0.02998216 0.32288414 0.00724590
0.04765500 0.32331458 0.00774049
0.06610079 0.32374477 0.00827300
0.08536969 0.32415098 0.00884460
0.10548122 0.32450733 0.00946290
0.12646522 0.32477909 0.01013133
0.14840513 0.32507932 0.01085544
0.17156951 0.32549223 0.01161104
0.19587038 0.32593796 0.01242611
0.22127204 0.32631758 0.01331327
0.24782309 0.32649729 0.01427428
0.27540180 0.32635933 0.01532996
0.30387056 0.32577175 0.01649828
0.33243594 0.32459122 0.01778083
0.36008424 0.32252452 0.01912426
0.38831022 0.32028410 0.02053897
0.41713351 0.31792045 0.02202521
0.44649813 0.31551218 0.02358026
0.47674507 0.31310460 0.02523036
0.50761211 0.31068060 0.02698912
0.53895378 0.30820462 0.02886387
0.57085496 0.30567777 0.03089071
0.60306495 0.30323422 0.03306834
0.63554513 0.30090797 0.03543145
0.66814923 0.29876357 0.03801407
0.70078087 0.29692769 0.04086728
0.73380864 0.29521653 0.04424291
0.76558530 0.29418287 0.04787374
0.79620552 0.29368103 0.05197886
0.82536685 0.29375154 0.05672342
0.85334444 0.29398370 0.06272399
0.87861675 0.29531899 0.06957481
0.90087491 0.29812336 0.07731304
0.92034584 0.30244231 0.08638600
0.93716800 0.30853653 0.09722181
0.95202154 0.31597537 0.11143599
0.96402377 0.32726496 0.12715253
0.97416484 0.34229487 0.14613169
0.98294431 0.36188486 0.16974141
0.99094135 0.38681257 0.20063148
0.99820620 0.41972739 0.23903754
1.00000000 0.46302250 0.28708434
1.00000000 0.51928478 0.34978068
1.00000000 0.59200013 0.43567887
1.00000000 0.68698746 0.55223620
1.00000000 0.81158978 0.71971142
1.00000000 0.97993517 0.97219336
0.01538754 0.34485519 0.00799168
0.03176623 0.34529272 0.00849956
0.04891083 0.34573939 0.00902742
0.06680618 0.34619004 0.00959364
0.08550163 0.34662500 0.01020019
0.10502325 0.34702197 0.01085370
