lab1/Effects/LUTs/tony_mc_mapface.cube
LUT_3D_SIZE 5
DOMAIN_MIN 0.000000 0.000000 0.000000
DOMAIN_MAX 0.851064 0.851064 0.851064
0.00013700 0.00013700 0.00013700
0.25807205 0.00284428 0.00156040
0.56515467 0.01642746 0.00903813
0.87478155 0.06432895 0.03767430
0.99699312 0.27562180 0.18944457
0.00615522 0.23219438 0.00315621
0.23730533 0.23342174 0.00823886
0.52697217 0.21704809 0.01889746
0.84586090 0.21691468 0.04839796
0.99326873 0.34891477 0.19477847
0.03127779 0.45585454 0.01669137
0.20211565 0.46044701 0.02550202
0.47579899 0.45925263 0.04327848
0.78835368 0.42489800 0.07854936
0.98520541 0.45963669 0.21305047
0.10135882 0.67065537 0.05930812
0.21116182 0.67525172 0.07143091
0.39181688 0.68030500 0.09359986
0.70884424 0.67429912 0.14276780
0.96085548 0.63636082 0.26565331
0.33102438 0.85899115 0.23453723
0.37534669 0.86064941 0.24624221
0.44938362 0.86307967 0.26599300
0.59146595 0.86675990 0.30702513
0.89741260 0.86356413 0.43484128
0.00000000 0.00381789 0.25379696
0.23832616 0.00851132 0.23651284
0.52268112 0.02444226 0.20796987
0.84022528 0.07286268 0.19445360
1.00000000 0.27917990 0.28521806
0.01332876 0.23375884 0.23732744
0.23799479 0.23799521 0.23799485
0.51707870 0.21686813 0.21460471
0.83372593 0.21748811 0.20388645
0.99747270 0.35064873 0.28832272
0.03993424 0.45896688 0.18967523
0.20807493 0.46477190 0.19911914
0.47501615 0.46343568 0.21244735
0.77946383 0.42708600 0.21406956
0.98829496 0.46082905 0.29451379
0.11373491 0.67239738 0.17490138
0.22140497 0.67906272 0.18747245
0.39800683 0.68255258 0.20768587
0.70806998 0.67754370 0.24969086
0.96193588 0.63786989 0.33117792
0.34254590 0.86171949 0.28790385
0.38576785 0.86319631 0.29891998
0.45785886 0.86548465 0.31748593
0.59711909 0.86871898 0.35553369
0.89853662 0.86562085 0.47292975
0.00000000 0.02199950 0.54712170
0.20355037 0.02699506 0.50062197
0.47908244 0.04493915 0.47075838
0.78783435 0.09398418 0.40148184
0.99113679 0.28979522 0.40396753
0.02217037 0.22560725 0.54147673
0.21188380 0.21753347 0.50493491
0.47608584 0.21639270 0.47369289
0.78268671 0.22385280 0.40959215
0.99366188 0.35601777 0.41398251
0.06840055 0.46089056 0.47652620
0.22618425 0.46461898 0.47582045
0.47539678 0.47539908 0.47539741
0.77042192 0.42568225 0.42029828
0.99226236 0.46209413 0.42306650
0.13413072 0.67814243 0.35961339
0.23614742 0.68072432 0.36914670
0.40779120 0.68892419 0.38745165
0.70716864 0.68498629 0.41666487
0.96424729 0.63974983 0.43461940
0.36077943 0.86545962 0.37376335
0.40284294 0.86769658 0.38394588
0.47179526 0.86953509 0.40032950
0.60637677 0.87257349 0.43364802
0.90023148 0.86925286 0.53412145
0.00643263 0.08500341 0.84905553
0.16978303 0.08382136 0.76886350
0.39601228 0.10072006 0.75027120
0.71483386 0.14760771 0.69594675
0.97022575 0.31939417 0.58890957
0.04789969 0.24924138 0.86914575
0.19966437 0.23301156 0.80404508
0.40086278 0.23012236 0.74688834
0.71160007 0.25754121 0.70028573
0.97108227 0.37745032 0.59525502
0.09714562 0.44405484 0.80583954
0.22607152 0.44560021 0.79826111
0.41408741 0.42830554 0.75129294
0.70644528 0.42466733 0.70234501
0.97163409 0.46976677 0.60549766
0.21228956 0.67867965 0.71192449
0.30282444 0.68159664 0.71082872
0.44713488 0.68801147 0.70909768
0.70613843 0.70614201 0.70613891
0.96756917 0.63765538 0.62145293
0.38983971 0.86644763 0.53091007
0.42922553 0.86876625 0.53839046
0.49578324 0.87342262 0.55157936
0.62261277 0.88042110 0.57831258
0.90290117 0.87715483 0.64754218
0.11551182 0.35804337 0.98929691
0.21960546 0.33460465 0.98133725
0.34875828 0.31572479 0.95544088
0.56323951 0.33265996 0.93054646
0.90458006 0.43989971 0.88470113
0.16930453 0.44415870 0.99344128
0.26478747 0.41913068 0.98766679
0.38015139 0.39466158 0.96757066
0.57288647 0.39324555 0.93296719
0.90415221 0.48000565 0.88728613
0.22707711 0.55296463 0.99396777
0.31439438 0.53550255 0.99169511
0.41826847 0.51029801 0.97743791
0.58362216 0.48516569 0.93620700
0.90331995 0.54307967 0.89070380
0.30021629 0.67854118 0.97289455
0.35992157 0.68062305 0.97466874
0.46644506 0.68141794 0.97662538
0.61467153 0.65601307 0.95153391
0.90191436 0.65673304 0.89549792
0.55565327 0.87321717 0.90514803
0.58140701 0.87480164 0.90553188
0.62353510 0.87755442 0.90605497
0.70414358 0.88344353 0.90660578
0.90279114 0.90279496 0.90279198
